icons/svg/transport/parking_underground_paid.svg

<?xml version="1.0" encoding="UTF-8" standalone="no"?>
<!-- Created with Inkscape (http://www.inkscape.org/) -->

<svg
   xmlns:dc="http://purl.org/dc/elements/1.1/"
   xmlns:cc="http://creativecommons.org/ns#"
   xmlns:rdf="http://www.w3.org/1999/02/22-rdf-syntax-ns#"
   xmlns:svg="http://www.w3.org/2000/svg"
   xmlns="http://www.w3.org/2000/svg"
   xmlns:sodipodi="http://sodipodi.sourceforge.net/DTD/sodipodi-0.dtd"
   xmlns:inkscape="http://www.inkscape.org/namespaces/inkscape"
   version="1.0"
   width="580"
   height="580"
   id="svg2"
   sodipodi:version="0.32"
   inkscape:version="0.48.4 r9939"
   sodipodi:docname="parking_underground.svg"
   inkscape:output_extension="org.inkscape.output.svg.inkscape">
  <metadata
     id="metadata10">
    <rdf:RDF>
      <cc:Work
         rdf:about="">
        <dc:format>image/svg+xml</dc:format>
        <dc:type
           rdf:resource="http://purl.org/dc/dcmitype/StillImage" />
        <cc:license
           rdf:resource="http://web.resource.org/cc/PublicDomain" />
        <dc:language>en</dc:language>
        <dc:title></dc:title>
      </cc:Work>
    </rdf:RDF>
  </metadata>
  <sodipodi:namedview
     inkscape:window-height="1004"
     inkscape:window-width="1920"
     inkscape:pageshadow="2"
     inkscape:pageopacity="0.0"
     guidetolerance="10.0"
     gridtolerance="10.0"
     objecttolerance="10.0"
     borderopacity="1.0"
     bordercolor="#666666"
     pagecolor="#ffffff"
     id="base"
     showgrid="false"
     inkscape:zoom="0.25"
     inkscape:cx="-837.12955"
     inkscape:cy="338.72934"
     inkscape:window-x="1680"
     inkscape:window-y="0"
     inkscape:current-layer="svg2"
     inkscape:window-maximized="1" />
  <defs
     id="defs4">
    <inkscape:perspective
       sodipodi:type="inkscape:persp3d"
       inkscape:vp_x="0 : 290 : 1"
       inkscape:vp_y="0 : 1000 : 0"
       inkscape:vp_z="580 : 290 : 1"
       inkscape:persp3d-origin="290 : 193.33333 : 1"
       id="perspective12" />
    <style
       type="text/css"
       id="style6">
   
    .fil0 {fill:#EF7900}
   
  </style>
    <inkscape:perspective
       id="perspective6807"
       inkscape:persp3d-origin="29.116032 : 19.410688 : 1"
       inkscape:vp_z="58.232063 : 29.116032 : 1"
       inkscape:vp_y="0 : 1000 : 0"
       inkscape:vp_x="0 : 29.116032 : 1"
       sodipodi:type="inkscape:persp3d" />
    <inkscape:perspective
       id="perspective6954"
       inkscape:persp3d-origin="290 : 193.33333 : 1"
       inkscape:vp_z="580 : 290 : 1"
       inkscape:vp_y="0 : 1000 : 0"
       inkscape:vp_x="0 : 290 : 1"
       sodipodi:type="inkscape:persp3d" />
    <marker
       viewBox="0 0 10 10"
       refY="5"
       refX="10"
       orient="auto"
       markerWidth="4"
       markerUnits="strokeWidth"
       markerHeight="3"
       id="ArrowStart">
      <path
         id="path2295"
         d="M 10 0 L 0 5 L 10 10 z" />
    </marker>
    <marker
       viewBox="0 0 10 10"
       refY="5"
       refX="0"
       orient="auto"
       markerWidth="4"
       markerUnits="strokeWidth"
       markerHeight="3"
       id="ArrowEnd">
      <path
         id="path2292"
         d="M 0 0 L 10 5 L 0 10 z" />
    </marker>
    <inkscape:perspective
       id="perspective7597"
       inkscape:persp3d-origin="178.5405 : 158.483 : 1"
       inkscape:vp_z="357.08099 : 237.7245 : 1"
       inkscape:vp_y="0 : 1000 : 0"
       inkscape:vp_x="0 : 237.7245 : 1"
       sodipodi:type="inkscape:persp3d" />
  </defs>
  <g
     id="g1327">
    <path
       d="M 66.275,1.768 C 24.94,1.768 1.704,23.139 1.704,66.804 L 1.704,516.927 C 1.704,557.771 22.598,579.156 63.896,579.156 L 515.92,579.156 C 557.227,579.156 578.149,558.84 578.149,516.927 L 578.149,66.804 C 578.149,24.203 557.227,1.768 514.627,1.768 C 514.624,1.768 66.133,1.625 66.275,1.768 z"
       style="fill:#111111;stroke:#eeeeee;stroke-width:3.40799999"
       id="path1329" />
  </g>
  <g
     id="g2319"
     transform="translate(879.29125,36.805119)">
    <path
       id="path2323"
       style="fill:#ffffff;stroke:none"
       d="" />
  </g>
  <g
     id="g2325"
     transform="translate(879.29125,36.805119)">
    <path
       id="path2329"
       style="fill:#ffffff;stroke:none"
       d="" />
  </g>
  <path
     style="font-size:143.53205872px;font-style:normal;font-weight:normal;fill:#ffffff;fill-opacity:1;stroke:#ffffff;stroke-width:18.07469177;stroke-linecap:round;stroke-linejoin:round;stroke-miterlimit:4;stroke-opacity:1;stroke-dasharray:none;font-family:Bitstream Vera Sans"
     d="m 35.349968,382.32591 0,-338.429465 124.541982,0 c 21.92038,3.57e-4 38.6611,1.077669 50.22215,3.231928 16.21501,2.770584 29.80275,8.041693 40.7633,15.813401 10.96003,7.772318 19.78081,18.660866 26.46233,32.665606 6.68101,14.0053 10.02165,29.39545 10.02195,46.17045 -3e-4,28.77979 -8.93369,53.13469 -26.80019,73.06474 -17.86703,19.93038 -50.14729,29.89549 -96.84097,29.89539 l -84.679532,0 0,137.58795 -43.69102,0 z m 43.69102,-177.52539 85.355182,0 c 28.22632,1.6e-4 48.27012,-5.3864 60.13148,-16.15968 11.86089,-10.77289 17.79144,-25.9322 17.79172,-45.47792 -2.8e-4,-14.15868 -3.49103,-26.2784 -10.47236,-36.35919 -6.98179,-10.0803 -16.1779,-16.73652 -27.58843,-19.96874 -7.35709,-2.000435 -20.94482,-3.000775 -40.76327,-3.001079 l -84.454322,0 0,120.966609 z"
     id="text2419"
     inkscape:connector-curvature="0" />
  <path
     style="fill:none;stroke:#ffffff;stroke-width:38.92110825;stroke-linecap:butt;stroke-linejoin:round;stroke-miterlimit:4;stroke-opacity:1;stroke-dasharray:none"
     d="m 295.14951,277.1921 251.74504,0"
     id="path2997"
     inkscape:connector-curvature="0"
     sodipodi:nodetypes="cc" />
  <path
     inkscape:connector-curvature="0"
     style="fill:#ffffff;stroke:none"
     d="m 369.50809,337.63428 c -16.09828,0 -24.63807,8.78862 -28.58054,19.07601 l -20.92782,54.03752 c -8.29618,1.06379 -23.00276,10.80196 -23.00276,29.24984 l 0,68.71823 20.37005,0 0,21.97645 c 0,27.03751 38.26357,26.71909 38.26357,0 l 0,-21.97645 68.82977,0 0.0224,0 68.82974,0 0,21.97645 c 0,26.71909 38.26338,27.03751 38.26361,0 l 0,-21.97645 20.37001,0 0,-68.71823 c 0,-18.44787 -14.7065,-28.18605 -23.0028,-29.24984 L 507.99327,356.71029 C 504.05081,346.4229 495.51109,337.63428 479.4127,337.63428 l -29.58446,0 -50.37858,0 -29.94148,0 z m -0.24543,19.6784 55.15306,0 0.0446,0 0.0224,0 55.17535,0 c 6.89895,0.0643 9.85367,4.37868 11.82489,10.35235 l 15.77392,42.525 -82.77416,0 -0.0224,0 -0.0446,0 -82.75191,0 15.77396,-42.525 c 1.97125,-5.97367 4.92521,-10.28812 11.82489,-10.35235 z m -32.1503,73.55974 c 9.76192,0 17.67039,8.1448 17.67039,18.20587 -1e-5,10.06177 -7.90847,18.22818 -17.67039,18.22818 -9.76121,0 -17.67041,-8.16642 -17.67041,-18.22818 0,-10.06105 7.9092,-18.20587 17.67041,-18.20587 z m 174.71831,0 c 9.76193,0 17.67046,8.14482 17.67041,18.20587 0,10.06176 -7.90848,18.22818 -17.67041,18.22818 -9.7612,0 -17.69276,-8.16641 -17.69276,-18.22818 0,-10.06107 7.93156,-18.20587 17.69276,-18.20587 z"
     id="path2301-5" />
  <g
     transform="matrix(0.85567663,0,0,0.85567663,-197.64022,264.73529)"
     id="g4998">
    <g
       id="g4372">
      <path
         inkscape:connector-curvature="0"
         transform="scale(1.0867055,0.9202125)"
         style="font-size:323.14517212px;font-style:normal;font-variant:normal;font-weight:normal;font-stretch:normal;text-align:start;line-height:125%;writing-mode:lr-tb;text-anchor:start;fill:#ffffff;fill-opacity:1;stroke:none;font-family:Arial Unicode MS;-inkscape-font-specification:Arial Unicode MS"
         d="m 428.26872,167.17928 c 0.21028,0.10532 0.99921,0.3157 2.36679,0.63114 21.56392,4.20775 37.76324,11.88665 48.598,23.03672 10.83446,11.15029 16.25177,25.77175 16.25193,43.86443 -1.6e-4,18.51357 -5.94342,34.55511 -17.82979,48.12465 -11.88666,13.56957 -28.34895,20.9329 -49.38693,22.09 l 0,28.717 -16.88307,0 0,-28.40143 c -21.45892,-2.41938 -37.92122,-9.38825 -49.38694,-20.90661 -11.46578,-11.51833 -17.93499,-27.63875 -19.40764,-48.36132 l 28.40143,-5.04915 c 2.20896,15.56825 6.67955,27.55995 13.41179,35.97515 6.73213,8.41526 15.72591,13.20143 26.98136,14.3585 l 0,-90.41122 c -21.35373,-4.62827 -37.34267,-12.35976 -47.96686,-23.1945 -10.62427,-10.83448 -15.93638,-24.77221 -15.93636,-41.81322 -2e-5,-16.93548 5.2595,-31.478049 15.77857,-43.627756 10.51901,-12.149271 26.56054,-19.170729 48.12465,-21.064395 l 0,-13.569573 16.88307,0 0,13.569573 c 17.88227,1.788476 31.97778,7.468756 42.28658,17.040859 10.30851,9.572546 16.77772,22.984322 19.40764,40.235362 l -29.50593,4.26021 C 458.77383,111.95446 455.24996,103.46034 449.88537,97.201308 444.52054,90.942683 437.315,86.919151 428.26872,85.1307 l 0,82.04858 z m -16.88307,-3.47129 0,-78.892862 c -11.46584,1.998833 -20.24923,6.600912 -26.35022,13.806251 -6.1011,7.205741 -9.15162,15.542081 -9.15157,25.009041 -5e-5,10.83478 3.15566,19.3815 9.46714,25.64018 6.31137,6.25898 14.98958,11.07144 26.03465,14.43739 l 0,0 z m 16.88307,117.55037 c 11.04489,-1.68303 20.14386,-6.49549 27.29693,-14.43739 7.15282,-7.94184 10.72929,-17.96123 10.72943,-30.05819 -1.4e-4,-10.62416 -2.70879,-19.17088 -8.12596,-25.64018 -5.41744,-6.46912 -15.38423,-11.96531 -29.9004,-16.4886 l 0,86.62436 z"
         id="text2413" />
    </g>
    <path
       inkscape:connector-curvature="0"
       sodipodi:nodetypes="cc"
       id="path4370"
       d="m 455.37677,43.427273 0,265.043727"
       style="fill:none;stroke:#ffffff;stroke-width:30;stroke-linecap:round;stroke-linejoin:round;stroke-miterlimit:4;stroke-opacity:1;stroke-dasharray:none" />
  </g>
</svg>

<svg width="580" height="580" viewBox="0 0 580 580" fill="none" xmlns="http://www.w3.org/2000/svg">
<g clip-path="url(#clip0)">
<path d="M66.2751 1.76766C24.9401 1.76766 1.7041 23.1387 1.7041 66.8037V516.927C1.7041 557.771 22.5981 579.156 63.8961 579.156H515.92C557.227 579.156 578.149 558.84 578.149 516.927V66.8037C578.149 24.2027 557.227 1.76766 514.627 1.76766C514.624 1.76766 66.1331 1.62466 66.2751 1.76766Z" fill="#111111" stroke="#EEEEEE" stroke-width="3.408"/>
<path d="M35.3496 382.326V43.8965H159.892C181.812 43.8968 198.553 44.9742 210.114 47.1284C226.329 49.899 239.916 55.1701 250.877 62.9418C261.837 70.7141 270.658 81.6027 277.339 95.6074C284.02 109.613 287.361 125.003 287.361 141.778C287.361 170.558 278.428 194.913 260.561 214.843C242.694 234.773 210.414 244.738 163.72 244.738H79.0406V382.326H35.3496V382.326ZM79.0406 204.801H164.396C192.622 204.801 212.666 199.414 224.527 188.641C236.388 177.868 242.319 162.709 242.319 143.163C242.319 129.004 238.828 116.885 231.847 106.804C224.865 96.7235 215.669 90.0672 204.258 86.835C196.901 84.8346 183.313 83.8343 163.495 83.8339H79.0406V204.801V204.801Z" fill="white" stroke="white" stroke-width="18.0747" stroke-linecap="round" stroke-linejoin="round"/>
<path d="M295.149 277.192H546.894" stroke="white" stroke-width="38.9211" stroke-linejoin="round"/>
<path d="M369.508 337.635C353.41 337.635 344.87 346.423 340.928 356.711L320 410.748C311.704 411.812 296.997 421.55 296.997 439.998V508.716H317.367V530.693C317.367 557.73 355.631 557.412 355.631 530.693V508.716H424.46H424.483H493.313V530.693C493.313 557.412 531.576 557.73 531.576 530.693V508.716H551.946V439.998C551.946 421.55 537.24 411.812 528.943 410.748L507.993 356.711C504.051 346.423 495.511 337.635 479.413 337.635H449.828H399.45H369.508H369.508ZM369.263 357.313H424.416H424.46H424.483H479.658C486.557 357.377 489.512 361.692 491.483 367.666L507.257 410.191H424.483H424.46H424.416H341.664L357.438 367.666C359.409 361.692 362.363 357.377 369.263 357.313V357.313ZM337.112 430.873C346.874 430.873 354.783 439.018 354.783 449.079C354.783 459.141 346.874 467.307 337.112 467.307C327.351 467.307 319.442 459.141 319.442 449.079C319.442 439.018 327.351 430.873 337.112 430.873ZM511.831 430.873C521.593 430.873 529.501 439.018 529.501 449.079C529.501 459.141 521.593 467.307 511.831 467.307C502.07 467.307 494.138 459.141 494.138 449.079C494.138 439.018 502.07 430.873 511.831 430.873V430.873Z" fill="white"/>
<path d="M200.594 396.372C200.789 396.455 201.523 396.621 202.795 396.869C222.846 400.182 237.909 406.229 247.984 415.008C258.059 423.788 263.096 435.301 263.096 449.547C263.096 464.125 257.57 476.756 246.517 487.441C235.464 498.126 220.156 503.923 200.594 504.835V527.446H184.895V505.083C164.941 503.178 149.633 497.691 138.971 488.621C128.31 479.552 122.294 466.858 120.925 450.541L147.334 446.565C149.388 458.824 153.546 468.266 159.806 474.892C166.066 481.519 174.429 485.287 184.895 486.198V415.008C165.039 411.364 150.171 405.276 140.292 396.745C130.413 388.214 125.473 377.239 125.473 363.821C125.473 350.486 130.364 339.035 140.145 329.468C149.926 319.902 164.843 314.373 184.895 312.882V302.197H200.594V312.882C217.222 314.29 230.329 318.763 239.915 326.3C249.5 333.838 255.516 344.398 257.961 357.982L230.525 361.336C228.959 352.888 225.683 346.199 220.694 341.271C215.706 336.343 209.006 333.175 200.594 331.767V396.372ZM184.895 393.639V331.518C174.233 333.092 166.066 336.716 160.392 342.389C154.719 348.063 151.883 354.627 151.883 362.082C151.883 370.613 154.817 377.343 160.686 382.271C166.555 387.199 174.624 390.988 184.895 393.639ZM200.594 486.198C210.864 484.873 219.325 481.084 225.976 474.83C232.627 468.577 235.953 460.688 235.953 451.162C235.953 442.797 233.434 436.067 228.397 430.973C223.36 425.879 214.092 421.552 200.594 417.99V486.198V486.198Z" fill="white"/>
<path d="M192.016 301.895V528.686" stroke="white" stroke-width="25.6703" stroke-linecap="round" stroke-linejoin="round"/>
</g>
<defs>
<clipPath id="clip0">
<path d="M0 0H580V580H0V0Z" fill="white"/>
</clipPath>
</defs>
</svg>
